X:1
T:Ghost Riders In the Sky
M:2/4
L:1/8
K:C
 E| AA AB| cc cA| GA GE| G3 A| EA AB| cB cd| ee ec| e3| e| ea aa| ae ee|\
 ee ec| A2 z A| FF FF| cc c2-| c2 z c| cA AA| A3 z| ee e g-| g2 z2|\
 aa a a-| e2 z E| F2 F2| c3 c| A4-| A2 z||
